X: 4454
T: Bonnie Kate
R: reel
M: 4/4
K: Dmajor
A2dA BdAF|DFAF {G}EDEB|AFAd BGBd|cABc dcdB|
A2dA (3.B.c.dAF|DFAF ~E3B|AFAd BGBd|cABc defg||
a2fd fafd|fafd [e3c3]f|g2{a}gf gbag|1 (3fgf ec defg:|2 fdec d4||

